X: 93
T: Connie The Soldier
R: jig
M: 6/8
L: 1/8
K: Dmaj
|: EAA A2 d|cAG EFD|DGG DEE|DGG GED|
EAA A2 d|cAG EFD|EFG AGE|1 EDD D3:|2 EDD D2
|:(d/e/)|fdd ede|fdd d2 e|fed ded|cAA A2 (d/e/)|
fdd ede|fed A2 G|DFG AGE|1 EDD D2:|2 EDD D3 |]
F: https://thesession.org/tunes/373#setting373

